.svelte-kit/output/client/library/social-竹白.svg

<svg width="48" height="48" viewBox="0 0 48 48" fill="none" xmlns="http://www.w3.org/2000/svg">
<path d="M35 14C32 14 29.5 16 28.8437 20C33.5 20 35 15.5 35 14Z" fill="#383E6F"/>
<path fill-rule="evenodd" clip-rule="evenodd" d="M31.5 32.7812C33.5 32.2812 38 31.5 39.7813 32.7812C42.3675 32.7812 44.3853 23.7292 43.5 21.5C42.9508 20.117 41.0721 19.643 40.5 19.5C38.5 19 29 20 28 21C26.7754 22.8369 28.517 33.527 31.5 32.7812ZM31 23.3303C31 23.8303 31 24.3438 31 25C32.3958 24.8333 34.9 24.5 36.5 24.5C38.5 24.5 38.5 27 37.5 27C36.5 27 32 27.3438 31.5 27.5C31.2491 27.5784 31 28.5 31.5 29.5C34 29.5 36 29.5 39 29.3438C39.5 27.5 40 24 39.5 22.5C38.3544 21.9638 33 22.5 31 23.3303Z" fill="#383E6F"/>
<path d="M8.50001 23.5C7.5 24.5 4.75002 26 4.50001 25.5C4.36801 25.236 6.39539 22.5008 7.5 20C8.48757 17.7641 8.38126 15.8094 9 15.5C9.90625 15.0469 12 16.5 12 17.5C12 18.5 11.4772 19.4364 10.5 21C14.5 19.5 15.1719 20.5 15.1719 21C15.1719 21.2391 15.709 22.9347 12 23.5V25C12 25.5 12.5 26 12.5 26H9C9 26 9.5 25.5 9.5 25V23.5C9.18431 23.5092 8.8513 23.5 8.50001 23.5Z" fill="#383E6F"/>
<path d="M17.5 22.5C16.5 23.5 14.2561 25.5853 14.0061 25.0853C13.8741 24.8213 14.8954 22.5008 16 20C16.9876 17.7641 16.6906 15.6187 17 15C17.5 14 20.5 15 20.5 16C20.5 17 19.9834 18.4364 19.0061 20C23.0061 18.5 24 19 24.5 19.5C25 20 25.209 21.9347 21.5 22.5V24V31C21.5 31 21.5 33.5 19.5 33.5C17.5 33.5 15.7335 30.6599 16 30.5H18.5V24.5V22.5C18.1843 22.5092 17.8513 22.5 17.5 22.5Z" fill="#383E6F"/>
<path d="M9 26.2969C10.0625 26.2969 10.6094 26.2969 12.5 26.2969C12 26.6172 12 27.7812 12.5 28.1172C11.5 28.1172 10 28.1172 9 28.1172C9.5 27.6172 9.5 26.6172 9 26.2969Z" fill="#383E6F"/>
<path d="M9 28.3815C10.0625 28.3815 10.6094 28.3815 12.5 28.3815C11.9345 29.5 11.9345 31 12.4345 32C11.9345 33 9.43452 33 8.93452 32C9.43452 31 9.43452 29.5 9 28.3815Z" fill="#383E6F"/>
</svg>

<svg width="48" height="48" fill="none" xmlns="http://www.w3.org/2000/svg"><path d="M35 14c-3 0-5.5 2-6.156 6C33.5 20 35 15.5 35 14Z" fill="#383E6F"/><path fill-rule="evenodd" clip-rule="evenodd" d="M31.5 32.781c2-.5 6.5-1.281 8.281 0 2.587 0 4.604-9.052 3.719-11.281-.55-1.383-2.428-1.857-3-2C38.5 19 29 20 28 21c-1.225 1.837.517 12.527 3.5 11.781Zm-.5-9.45V25c1.396-.167 3.9-.5 5.5-.5 2 0 2 2.5 1 2.5s-5.5.344-6 .5c-.25.078-.5 1 0 2 2.5 0 4.5 0 7.5-.156.5-1.844 1-5.344.5-6.844-1.146-.536-6.5 0-8.5.83Z" fill="#383E6F"/><path d="M8.5 23.5c-1 1-3.75 2.5-4 2-.132-.264 1.895-3 3-5.5.988-2.236.881-4.19 1.5-4.5.906-.453 3 1 3 2s-.523 1.936-1.5 3.5c4-1.5 4.672-.5 4.672 0 0 .24.537 1.935-3.172 2.5V25c0 .5.5 1 .5 1H9s.5-.5.5-1v-1.5c-.316.01-.649 0-1 0Z" fill="#383E6F"/><path d="M17.5 22.5c-1 1-3.244 3.085-3.494 2.585-.132-.264.89-2.584 1.994-5.085.988-2.236.69-4.381 1-5 .5-1 3.5 0 3.5 1s-.517 2.436-1.494 4c4-1.5 4.994-1 5.494-.5s.709 2.435-3 3V31s0 2.5-2 2.5-3.767-2.84-3.5-3h2.5v-8c-.316.01-.649 0-1 0ZM9 26.297h3.5c-.5.32-.5 1.484 0 1.82H9c.5-.5.5-1.5 0-1.82ZM9 28.381h3.5C11.934 29.5 11.934 31 12.434 32c-.5 1-3 1-3.5 0 .5-1 .5-2.5.066-3.619Z" fill="#383E6F"/></svg>
